static/assets/img/icons/theme/navigation/arrow-left.svg

<svg height="24" viewBox="0 0 24 24" width="24" xmlns="http://www.w3.org/2000/svg"><g fill="none" fill-rule="evenodd"><path d="m0 0h24v24h-24z" opacity="0"/><g fill="#000"><rect height="14" opacity=".3" rx="1" transform="matrix(0 -1 -1 0 24 24)" width="2" x="11" y="5"/><path d="m3.7071045 15.7071045c-.3905243.3905243-1.02368928.3905243-1.41421357 0s-.39052429-1.0236893 0-1.4142136l6-5.99999997c.37857894-.37857893.98816538-.39182456 1.38283141-.03004736l5.99999996 5.50000003c.407119.3731924.434622 1.0057598.0614296 1.4128787-.3731925.407119-1.0057598.434622-1.4128788.0614296l-5.29419964-4.8530164z" fill-rule="nonzero" transform="matrix(0 -1 1 0 -2.999996 20.999998)"/></g></g></svg>

<svg width="24px" height="24px" viewBox="0 0 24 24" version="1.1" xmlns="http://www.w3.org/2000/svg" xmlns:xlink="http://www.w3.org/1999/xlink">
    <title>Icon For Arrow-left</title>
    <g stroke="none" stroke-width="1" fill="none" fill-rule="evenodd">
        <polygon points="0 0 24 0 24 24 0 24" opacity="0"></polygon>
        <rect fill="#000000" opacity="0.3" transform="translate(12.000000, 12.000000) scale(-1, 1) rotate(-90.000000) translate(-12.000000, -12.000000) " x="11" y="5" width="2" height="14" rx="1"></rect>
        <path d="M3.7071045,15.7071045 C3.3165802,16.0976288 2.68341522,16.0976288 2.29289093,15.7071045 C1.90236664,15.3165802 1.90236664,14.6834152 2.29289093,14.2928909 L8.29289093,8.29289093 C8.67146987,7.914312 9.28105631,7.90106637 9.67572234,8.26284357 L15.6757223,13.7628436 C16.0828413,14.136036 16.1103443,14.7686034 15.7371519,15.1757223 C15.3639594,15.5828413 14.7313921,15.6103443 14.3242731,15.2371519 L9.03007346,10.3841355 L3.7071045,15.7071045 Z" fill="#000000" fill-rule="nonzero" transform="translate(9.000001, 11.999997) scale(-1, -1) rotate(90.000000) translate(-9.000001, -11.999997) "></path>
    </g>
</svg>
